img/bl2.svg

<svg width="191" height="177" viewBox="0 0 191 177" fill="none" xmlns="http://www.w3.org/2000/svg">
<path d="M148.194 113.036C159.501 102.423 168.377 85.0788 166.7 67.9651C165.023 50.8514 152.882 33.9228 137.467 30.5752C122.052 27.2276 103.361 37.461 85.1027 41.0715C66.7093 44.6385 48.6583 41.628 40.7652 49.0347C32.9157 56.3069 35.224 73.9962 34.7104 91.2193C34.2859 108.397 31.1287 125.063 36.5883 140.129C42.1371 155.15 56.3028 168.572 69.8824 166.793C83.462 165.015 96.4555 148.035 109.823 137.716C123.145 127.308 136.841 123.56 148.194 113.036Z" fill="url(#paint0_linear)"/>
<defs>
<linearGradient id="paint0_linear" x1="122.342" y1="141.382" x2="67.7537" y2="34.654" gradientUnits="userSpaceOnUse">
<stop stop-color="#FFCB35"/>
<stop offset="1" stop-color="#FF0066"/>
</linearGradient>
</defs>
</svg>

<svg width="191" height="177" viewBox="0 0 191 177" fill="none" xmlns="http://www.w3.org/2000/svg"><path d="M148.194 113.036c11.307-10.613 20.183-27.957 18.506-45.07-1.677-17.115-13.818-34.043-29.233-37.39-15.415-3.348-34.106 6.885-52.364 10.495-18.394 3.568-36.445.557-44.338 7.964-7.85 7.272-5.541 24.961-6.055 42.184-.424 17.178-3.581 33.844 1.878 48.91 5.55 15.021 19.715 28.443 33.294 26.664 13.58-1.778 26.573-18.758 39.941-29.077 13.322-10.408 27.018-14.156 38.371-24.68z" fill="url(#a)"/><defs><linearGradient id="a" x1="122.342" y1="141.382" x2="67.754" y2="34.654" gradientUnits="userSpaceOnUse"><stop stop-color="#FFCB35"/><stop offset="1" stop-color="#F06"/></linearGradient></defs></svg>
